packages/kaspersky-hexa-ui-icons/src/iconsSVGs/16/Detections.svg

<svg width="16" height="16" viewBox="0 0 16 16" fill="none" xmlns="http://www.w3.org/2000/svg">
<path d="M13.794 12.0988L13.0597 10.6943V7.88871L14.9461 11.4965C15.7456 13.0256 14.7186 14.8442 13.0486 14.998C13.0462 14.5215 12.8803 14.0836 12.6041 13.7375C12.6119 13.7279 12.6195 13.7183 12.6271 13.7085H12.8192C13.6457 13.7085 14.177 12.8312 13.794 12.0988Z" fill="black"/>
<path d="M10.9006 6.56512C10.5381 6.61793 10.2597 6.93008 10.2597 7.30725V12.4489C10.2597 12.8631 10.5955 13.1989 11.0097 13.1989C11.4239 13.1989 11.7597 12.8631 11.7597 12.4489L11.7597 7.30725C11.7597 6.94481 11.5026 6.64242 11.1608 6.57249C11.112 6.5625 11.0614 6.55725 11.0097 6.55725C10.9726 6.55725 10.9362 6.55994 10.9006 6.56512Z" fill="black"/>
<path d="M10.1267 2.27941L11.7573 5.39784C11.5256 5.30708 11.2735 5.25725 11.0097 5.25725C10.7548 5.25725 10.5107 5.30378 10.2856 5.3888L8.97471 2.88177C8.56317 2.09469 7.43667 2.09468 7.02512 2.88177L2.2058 12.0988C1.82286 12.8312 2.35414 13.7085 3.18059 13.7085H9.39219C9.3998 13.7183 9.40749 13.7279 9.41526 13.7375C9.13706 14.0861 8.97075 14.5279 8.97075 15.0085H3.18059C1.37741 15.0085 0.218267 13.0944 1.05378 11.4965L5.8731 2.27941C6.77101 0.562139 9.22882 0.562138 10.1267 2.27941Z" fill="black"/>
<path d="M10.5337 14.4433C10.3729 14.5789 10.2708 14.7818 10.2707 15.0085C10.2707 15.0085 10.2707 15.0085 10.2707 15.0085C10.2707 15.4166 10.6016 15.7474 11.0097 15.7474C11.4178 15.7474 11.7486 15.4166 11.7486 15.0085C11.7486 15.0085 11.7486 15.0085 11.7486 15.0085C11.7486 14.7818 11.6465 14.5789 11.4857 14.4433C11.3571 14.3349 11.191 14.2696 11.0097 14.2696C10.8283 14.2696 10.6622 14.3349 10.5337 14.4433Z" fill="black"/>
</svg>

<svg xmlns="http://www.w3.org/2000/svg" width="16" height="16" fill="none" viewBox="0 0 16 16"><path fill="#000" fill-rule="evenodd" d="m10.1267 2.2794 1.6306 3.1184a2.05 2.05 0 0 0-.7476-.1405c-.2549 0-.499.0465-.7241.1315l-1.3109-2.507c-.4115-.7871-1.538-.7871-1.9496 0l-4.8193 9.217c-.383.7324.1483 1.6097.9748 1.6097h6.2116q.0114.0146.023.029a2.03 2.03 0 0 0-.4445 1.271H3.1806c-1.8032 0-2.9623-1.9141-2.1268-3.512l4.8193-9.217c.8979-1.7174 3.3557-1.7174 4.2536 0m.7739 4.2857a.75.75 0 0 0-.6409.7421v5.1417a.75.75 0 0 0 1.5 0V7.3073a.7503.7503 0 0 0-.8591-.7422m2.8934 5.5337-.7343-1.4045V7.8887l1.8864 3.6078c.7995 1.5291-.2275 3.3477-1.8975 3.5015a2.03 2.03 0 0 0-.4445-1.2605l.023-.029h.1921c.8265 0 1.3578-.8773.9748-1.6097m-3.2604 2.3445a.739.739 0 1 0 .9521 1.1303.739.739 0 0 0-.9521-1.1303"/></svg>
